svg/系统配置.svg

<svg width="48" height="48" viewBox="0 0 48 48" fill="none" xmlns="http://www.w3.org/2000/svg">
<path d="M0 10C0 4.47715 4.47715 0 10 0H38C43.5229 0 48 4.47715 48 10V38C48 43.5229 43.5228 48 38 48H10C4.47715 48 0 43.5228 0 38V10Z" fill="url(#paint0_linear_1_484)"/>
<path d="M38.0639 19.1442C37.8931 18.6044 37.3807 18.2416 36.8042 18.2476C36.792 18.2476 36.7799 18.2476 36.7677 18.2476C35.2976 18.2476 34.102 17.072 34.102 15.6175C34.102 15.1977 34.1996 14.8048 34.3765 14.4569C34.6296 13.9501 34.5168 13.3413 34.0959 12.9575C32.4184 11.419 30.3688 10.2674 28.0904 9.64663C27.4957 9.48469 26.8643 9.75759 26.5837 10.2974C26.1415 11.1551 25.2387 11.7339 24.2047 11.7339C23.1708 11.7339 22.271 11.1551 21.8257 10.2974C21.5451 9.75459 20.9168 9.48469 20.319 9.64663C18.0438 10.2674 15.9942 11.419 14.3136 12.9575C13.8958 13.3413 13.7799 13.9501 14.033 14.4569C14.2069 14.8048 14.3075 15.1977 14.3075 15.6175C14.3075 17.072 13.1119 18.2476 11.6418 18.2476C11.6296 18.2476 11.6174 18.2476 11.6052 18.2476C11.0318 18.2386 10.5194 18.6044 10.3456 19.1442C9.91248 20.4998 9.68068 21.9423 9.68068 23.4357C9.68068 24.4224 9.78133 25.385 9.97653 26.3147C10.1107 26.9565 10.7146 27.3943 11.3765 27.3313C11.4649 27.3223 11.5534 27.3193 11.6418 27.3193C13.1119 27.3193 14.3075 28.4949 14.3075 29.9494C14.3075 30.5972 14.0727 31.188 13.6792 31.6438C13.2522 32.1446 13.2766 32.8794 13.7372 33.3532C15.4513 35.1076 17.6168 36.4331 20.0506 37.1468C20.7277 37.3448 21.4445 36.9729 21.661 36.3101C22.0057 35.2485 23.0152 34.4838 24.2017 34.4838C25.3881 34.4838 26.3977 35.2485 26.7423 36.3101C26.9589 36.9729 27.6726 37.3448 28.3527 37.1468C30.7897 36.4331 32.9552 35.1076 34.6662 33.3532C35.1268 32.8824 35.1512 32.1446 34.7242 31.6438C34.3307 31.185 34.0959 30.5972 34.0959 29.9494C34.0959 28.4949 35.2915 27.3193 36.7616 27.3193C36.8531 27.3193 36.9415 27.3223 37.0269 27.3313C37.6887 27.3943 38.2957 26.9565 38.4268 26.3147C38.619 25.382 38.7227 24.4194 38.7227 23.4357C38.7227 21.9423 38.4909 20.4998 38.0578 19.1442H38.0639ZM24.2078 29.0227C21.051 29.0227 18.4891 26.5066 18.4891 23.3997C18.4891 20.2928 21.048 17.7767 24.2078 17.7767C27.3676 17.7767 29.9265 20.2928 29.9265 23.3997C29.9265 26.5066 27.3676 29.0227 24.2078 29.0227Z" fill="url(#paint1_linear_1_484)" stroke="url(#paint2_linear_1_484)" stroke-width="0.4"/>
<path opacity="0.8" d="M24 26.8C25.8935 26.8 27.4286 25.2778 27.4286 23.4C27.4286 21.5222 25.8935 20 24 20C22.1065 20 20.5714 21.5222 20.5714 23.4C20.5714 25.2778 22.1065 26.8 24 26.8Z" fill="url(#paint3_linear_1_484)"/>
<defs>
<linearGradient id="paint0_linear_1_484" x1="24" y1="48" x2="24" y2="2.28882e-05" gradientUnits="userSpaceOnUse">
<stop stop-color="#8E8E93"/>
<stop offset="1" stop-color="#E5E5EA"/>
</linearGradient>
<linearGradient id="paint1_linear_1_484" x1="24.2017" y1="9.59998" x2="24.2017" y2="37.2" gradientUnits="userSpaceOnUse">
<stop stop-color="#7E7E7E"/>
<stop offset="1" stop-color="#434445"/>
</linearGradient>
<linearGradient id="paint2_linear_1_484" x1="24.2017" y1="9.59998" x2="24.2017" y2="37.2" gradientUnits="userSpaceOnUse">
<stop stop-color="#EDEDED"/>
<stop offset="1" stop-color="#343434"/>
</linearGradient>
<linearGradient id="paint3_linear_1_484" x1="24" y1="20" x2="24" y2="26.8" gradientUnits="userSpaceOnUse">
<stop stop-color="white"/>
<stop offset="1" stop-color="#D0D0D0"/>
</linearGradient>
</defs>
</svg>

<svg viewBox="0 0 48 48" fill="currentColor"><path fill="currentColor" d="M0 10C0 4.477 4.477 0 10 0h28c5.523 0 10 4.477 10 10v28c0 5.523-4.477 10-10 10H10C4.477 48 0 43.523 0 38z"/><path fill="currentColor" stroke="currentColor" strokeWidth=".4" d="M38.064 19.144a1.3 1.3 0 0 0-1.26-.896h-.036c-1.47 0-2.666-1.176-2.666-2.63 0-.42.098-.813.274-1.161a1.26 1.26 0 0 0-.28-1.5 14.54 14.54 0 0 0-6.006-3.31 1.31 1.31 0 0 0-1.506.65 2.67 2.67 0 0 1-2.38 1.437 2.67 2.67 0 0 1-2.378-1.437 1.31 1.31 0 0 0-1.507-.65 14.6 14.6 0 0 0-6.005 3.31 1.265 1.265 0 0 0-.281 1.5c.174.348.274.74.274 1.16 0 1.455-1.195 2.63-2.665 2.63h-.037a1.3 1.3 0 0 0-1.26.897 14 14 0 0 0-.664 4.292c0 .986.1 1.949.296 2.879.134.641.738 1.08 1.4 1.016q.132-.013.265-.012c1.47 0 2.665 1.176 2.665 2.63a2.58 2.58 0 0 1-.628 1.695c-.427.5-.402 1.235.058 1.71a14.56 14.56 0 0 0 6.314 3.793 1.31 1.31 0 0 0 1.61-.837 2.665 2.665 0 0 1 2.54-1.826c1.187 0 2.197.764 2.541 1.826.217.663.93 1.035 1.61.837a14.5 14.5 0 0 0 6.314-3.794c.46-.47.485-1.208.058-1.71a2.59 2.59 0 0 1-.628-1.694c0-1.454 1.196-2.63 2.666-2.63q.137 0 .265.012a1.296 1.296 0 0 0 1.4-1.016c.192-.933.296-1.896.296-2.88a14 14 0 0 0-.665-4.29zm-13.856 9.879c-3.157 0-5.719-2.516-5.719-5.623s2.559-5.623 5.719-5.623 5.719 2.516 5.719 5.623-2.56 5.623-5.72 5.623Z"/><path fill="currentColor" d="M24 26.8c1.893 0 3.429-1.522 3.429-3.4S25.894 20 24 20s-3.429 1.522-3.429 3.4 1.535 3.4 3.429 3.4" opacity=".8"/><defs><linearGradient id="a" x1="24" x2="24" y1="48" y2="0" gradientUnits="userSpaceOnUse"><stop stopColor="currentColor"/><stop offset="1" stopColor="currentColor"/></linearGradient><linearGradient id="b" x1="24.202" x2="24.202" y1="9.6" y2="37.2" gradientUnits="userSpaceOnUse"><stop stopColor="currentColor"/><stop offset="1" stopColor="currentColor"/></linearGradient><linearGradient id="c" x1="24.202" x2="24.202" y1="9.6" y2="37.2" gradientUnits="userSpaceOnUse"><stop stopColor="currentColor"/><stop offset="1" stopColor="currentColor"/></linearGradient><linearGradient id="d" x1="24" x2="24" y1="20" y2="26.8" gradientUnits="userSpaceOnUse"><stop stopColor="currentColor"/><stop offset="1" stopColor="currentColor"/></linearGradient></defs></svg>
